X: 8
T: The Laurel Tree
R: reel
M: 4/4
L: 1/8
K: Ador
|:eA A2 e2dc|BAGA BA (3Bcd|eA A2 e2dc|BAGA BA A2|
eA A2 e2dc|BAGA BA (3Bcd|e3f gaaf|gedB BA (3Bcd:|
|:eaag egdc|BAGA BA (3Bcd|eaag egdc|BAGA BA A2|
eaag egdc|BAGA Bd d2|e3f gaaf|gedB BA (3Bcd|
eaag egdc|BAGA Bcdg|eaag a2ga|bagb a3g|
eaag egdc|BAGA Bd d2|e3f gaaf|gedB A2 (3Bcd||


Tune 883	Setting 27987

